X:648
T:Brudmarsch # 648
S:efter Anders Gustaf Andersson
B:Sörmlands musikarkiv - Anders Gustaf Andersson, Nora (pdf), nr 648
O:Mörkö, Södermanland
R:Brudmarsch
M:1/4
L:1/16
K:D
Q:80
d4d2d2 | d2(cd) e2d2 | [f4A4] [f2A2][f2A2] | f2{gf} (ef) g2f2 | {f}a4a2a2 | {b}a2(ga) b2a2 |
a2(ba) a2g2 | f4 (ef)ec | d4d2d2 | d2(cd) e2d2 | [f4A4] [f2A2][f2A2] | f2{gf} (ef) g2f2 | (a2g2) (b2g2) |
(a2g2) (b2g2) | [f4A4] (ef)ec | d8:| (A2a2) (f2a2) | (A2a2) (f2a2) | (A2g2) (e2g2) | (A2g2 e2g2) |
(A2f2) (d2f2) | d2{e}d2 c2B2 | A2B2 c2e2 | {A}d4d2d2 | d2(cd) e2d2 | [f4A4] [f2A2][f2A2] | f2{gf}(ef) g2f2 |
(a2g2) (b2g2) | (a2g2) (b2g2) | [f4A4] (ef)ec | d8 :| a6g2 | [f2A2][f2A2] [f2A2][f2A2] | f6 (ga|
b6)a2 | [g2B2][g2B2] [g2B2][g2B2] | g6 ((3fgf | e2)e2 e2e2 | a6g2 | f2f2 {gf} e2d2 | g2g2 f2e2 | a2b2{c'b} g2f2 |
b2b2 a2g2 | (f2a2) b2b2| (a2g2) f2g2 | a8 | f2z2 c2z2 | d4 d2d2 | d2(cd) e2d2| [f4A4] [f2A2][f2A2] |
f2{gf} (ef) g2f2 | (a2g2) (b2g2) | (a2g2) (b2g2) | [f4A4] efec | d8:|

